X: 42275
T: Weaver And His Wife, The
R: jig
M: 6/8
K: Amajor
E3 A2 B|c3 A2 B|cBc A2 c|edc B2 G|
EE/E/E EGB|d3 B2 G|E2 e dcB|A3 A2:|
EAc e2 c|EAB c2 A|EAc edc|d2 c dBc|
dfd B/c/dB|GBG E3|E2 e dcB|A3- A2:|

